src/xmb/monochrome/Commodore - CD32.svg

<?xml version="1.0" encoding="UTF-8" standalone="no"?>
<svg
   xmlns:dc="http://purl.org/dc/elements/1.1/"
   xmlns:cc="http://creativecommons.org/ns#"
   xmlns:rdf="http://www.w3.org/1999/02/22-rdf-syntax-ns#"
   xmlns:svg="http://www.w3.org/2000/svg"
   xmlns="http://www.w3.org/2000/svg"
   xml:space="preserve"
   enable-background="new 0 128 64 64"
   viewBox="0 128 64 64"
   height="64px"
   width="64px"
   y="0px"
   x="0px"
   id="svg2"
   version="1.1"><metadata
     id="metadata3751"><rdf:RDF><cc:Work
         rdf:about=""><dc:format>image/svg+xml</dc:format><dc:type
           rdf:resource="http://purl.org/dc/dcmitype/StillImage" /><dc:title></dc:title></cc:Work></rdf:RDF></metadata><defs
     id="defs3749" /><g
     style="display:inline"
     id="layer2"><path
       transform="translate(0,128)"
       id="path3840"
       d="M 53.105469 18.947266 C 52.404045 18.950366 51.446239 18.964969 50.136719 18.980469 C 47.556509 19.011029 45.412697 19.066119 45.373047 19.103516 C 45.333397 19.140856 45.282107 19.316741 45.257812 19.494141 C 45.217222 19.790601 45.187272 19.823403 44.902344 19.908203 C 43.913725 20.202293 43.243871 21.006116 43.125 22.041016 C 43.07212 22.501426 43.07458 22.510904 44.009766 25.021484 C 44.50911 26.362024 44.941406 27.730333 44.941406 27.970703 C 44.941406 28.107353 44.879176 28.172322 44.689453 28.232422 C 43.535337 28.597792 35.097428 29.3962 33.277344 29.3125 L 33.25 29.310547 A 8.516036 1.037454 0 0 1 31.619141 29.330078 A 8.516036 1.037454 0 0 1 29.845703 29.308594 C 29.642285 29.304694 29.571933 29.308188 29.294922 29.300781 C 26.758855 29.232891 23.814682 28.973924 20.824219 28.552734 C 19.444888 28.358454 19.178258 28.283589 18.984375 28.037109 C 18.800972 27.803949 18.798712 27.814307 19.228516 26.498047 C 19.527939 25.581077 19.625345 25.315396 20.224609 23.785156 C 20.603969 22.816436 20.684714 22.394997 20.589844 21.873047 C 20.442973 21.064987 19.902569 20.398235 19.076172 20.007812 C 18.604855 19.785145 18.591797 19.770396 18.591797 19.478516 C 18.591797 19.252776 18.552577 19.157597 18.429688 19.091797 C 18.186794 18.961807 9.1823669 19.040308 9.0214844 19.173828 C 8.9577154 19.226748 8.9049169 19.362609 8.9042969 19.474609 C 8.9025569 19.772369 8.8257789 19.847203 8.4609375 19.908203 C 7.8737032 20.006353 6.9484067 20.516244 6.375 21.058594 C 5.5051895 21.881294 5.2431945 22.410562 4.2910156 25.257812 C 3.2347272 28.416373 2.5365223 31.52543 2.1230469 34.90625 C 1.7966297 37.57522 2.0784479 38.77241 3.3300781 40.03125 C 4.1100012 40.81567 4.7275097 41.108645 6.8125 41.679688 C 9.7795416 42.492317 15.073655 43.653059 15.996094 43.693359 C 16.209216 43.702659 16.471565 43.750529 16.578125 43.798828 C 16.97391 43.978298 21.386449 44.5521 24.132812 44.78125 C 25.475807 44.8933 28.069683 45.041084 29.441406 45.083984 C 33.155009 45.199994 37.620662 45.021234 41.841797 44.587891 C 43.70207 44.396911 47.194691 43.908519 47.302734 43.824219 C 47.346434 43.790149 47.627411 43.742649 47.925781 43.71875 C 48.224151 43.69486 49.443409 43.479714 50.636719 43.240234 C 54.469995 42.470944 58.474551 41.435787 59.433594 40.966797 C 60.244171 40.570407 61.090018 39.728137 61.474609 38.935547 C 61.924014 38.009387 62.019341 37.510686 61.962891 36.378906 C 61.784817 32.808536 60.500861 27.287737 58.884766 23.154297 C 58.190076 21.377507 57.236757 20.444392 55.646484 19.982422 L 55.074219 19.816406 L 55.044922 19.482422 C 55.004072 19.028874 55.20974 18.937988 53.105469 18.947266 z M 55.083984 24.423828 A 1.8564966 1.8564966 0 0 1 56.939453 26.28125 A 1.8564966 1.8564966 0 0 1 55.083984 28.136719 A 1.8564966 1.8564966 0 0 1 53.226562 26.28125 A 1.8564966 1.8564966 0 0 1 55.083984 24.423828 z M 10.826172 25.050781 A 4.3397679 4.3397679 0 0 1 15.166016 29.390625 A 4.3397679 4.3397679 0 0 1 10.826172 33.730469 A 4.3397679 4.3397679 0 0 1 6.4863281 29.390625 A 4.3397679 4.3397679 0 0 1 10.826172 25.050781 z M 49.470703 25.996094 A 1.8564966 1.8564966 0 0 1 51.326172 27.853516 A 1.8564966 1.8564966 0 0 1 49.470703 29.708984 A 1.8564966 1.8564966 0 0 1 47.613281 27.853516 A 1.8564966 1.8564966 0 0 1 49.470703 25.996094 z M 56.65625 30.058594 A 1.7909732 1.7909732 0 0 1 58.447266 31.849609 A 1.7909732 1.7909732 0 0 1 56.65625 33.640625 A 1.7909732 1.7909732 0 0 1 54.865234 31.849609 A 1.7909732 1.7909732 0 0 1 56.65625 30.058594 z M 51.070312 31.074219 A 2.3474903 2.3474903 0 0 1 53.417969 33.419922 A 2.3474903 2.3474903 0 0 1 51.070312 35.767578 A 2.3474903 2.3474903 0 0 1 48.722656 33.419922 A 2.3474903 2.3474903 0 0 1 51.070312 31.074219 z M 42.498047 36.589844 C 43.018158 36.542671 43.485525 36.868644 43.546875 37.320312 C 43.608225 37.771981 43.238861 38.17353 42.71875 38.220703 L 36.5625 38.777344 C 36.042389 38.824517 35.575022 38.500497 35.513672 38.048828 C 35.452322 37.59716 35.821686 37.19561 36.341797 37.148438 L 42.498047 36.589844 z "
       style="display:inline;fill:#ffffff;fill-opacity:1;stroke-width:0.07749861" /></g></svg>

<svg xmlns="http://www.w3.org/2000/svg" xml:space="preserve" width="64" height="64" viewBox="0 128 64 64"><g style="display:inline"><path d="M53.105 18.947c-.701.003-1.659.018-2.968.033-2.58.031-4.724.086-4.764.124-.04.037-.09.213-.115.39-.04.297-.07.33-.356.414-.988.294-1.658 1.098-1.777 2.133-.053.46-.05.47.885 2.98.5 1.341.931 2.71.931 2.95 0 .136-.062.201-.252.261-1.154.366-9.592 1.164-11.412 1.08l-.027-.001a8.516 1.037 0 0 1-1.63.02 8.516 1.037 0 0 1-1.774-.022c-.204-.004-.274 0-.551-.008-2.536-.068-5.48-.327-8.47-.748-1.38-.195-1.647-.27-1.84-.516-.184-.233-.186-.223.244-1.539.299-.917.396-1.183.996-2.713.379-.969.46-1.39.365-1.912-.147-.808-.687-1.475-1.514-1.865-.471-.223-.484-.238-.484-.53 0-.225-.04-.32-.162-.386-.243-.13-9.248-.052-9.409.082-.063.053-.116.189-.117.3-.001.298-.078.373-.443.434-.587.098-1.513.608-2.086 1.15-.87.823-1.132 1.353-2.084 4.2a48.4 48.4 0 0 0-2.168 9.648c-.326 2.67-.045 3.866 1.207 5.125.78.785 1.398 1.078 3.483 1.649 2.967.812 8.26 1.973 9.183 2.013.213.01.476.058.582.106.396.18 4.808.753 7.555.982 1.343.112 3.937.26 5.308.303 3.714.116 8.18-.063 12.4-.496 1.861-.191 5.354-.68 5.462-.764.043-.034.324-.081.623-.105.298-.024 1.517-.24 2.71-.479 3.834-.77 7.839-1.804 8.798-2.273.81-.397 1.656-1.239 2.04-2.031.45-.927.545-1.425.489-2.557-.178-3.57-1.462-9.091-3.078-13.225-.695-1.776-1.648-2.71-3.239-3.172l-.572-.166-.03-.334c-.04-.453.166-.544-1.939-.535m1.979 5.477a1.856 1.856 0 0 1 1.855 1.857 1.856 1.856 0 0 1-1.855 1.856 1.856 1.856 0 0 1-1.857-1.856 1.856 1.856 0 0 1 1.857-1.857m-44.258.627a4.34 4.34 0 0 1 4.34 4.34 4.34 4.34 0 0 1-4.34 4.34 4.34 4.34 0 0 1-4.34-4.34 4.34 4.34 0 0 1 4.34-4.34m38.645.945a1.856 1.856 0 0 1 1.855 1.858 1.856 1.856 0 0 1-1.855 1.855 1.856 1.856 0 0 1-1.858-1.855 1.856 1.856 0 0 1 1.858-1.858m7.185 4.063a1.79 1.79 0 0 1 1.791 1.79 1.79 1.79 0 0 1-1.79 1.792 1.79 1.79 0 0 1-1.792-1.791 1.79 1.79 0 0 1 1.791-1.791m-5.586 1.015a2.347 2.347 0 0 1 2.348 2.346 2.347 2.347 0 0 1-2.348 2.348 2.347 2.347 0 0 1-2.347-2.348 2.347 2.347 0 0 1 2.347-2.346m-8.572 5.516c.52-.047.988.279 1.049.73.061.452-.308.854-.828.9l-6.157.557c-.52.048-.987-.277-1.048-.728-.062-.452.308-.853.828-.9z" style="display:inline;fill:#fff;fill-opacity:1;stroke-width:.07749861" transform="translate(0 128)"/></g></svg>
